X:4
T:Freylekhs fun der khupe
R:frailach
Z:id:hn-frailach-4
M:4/4
L:1/8
Q:1/4=120
K:Ddor ^g
D2 E/F/^G/F/ GA AA | c/B/A A/^G/F A/G/F F/E/E/D/ |
D2 E/F/^G/F/ GA AA | d3A dc BA |
D2 E/F/^G/F/ GA AA | c/B/A A/^G/F A/G/F F/E/E/D/ |
c/B/c/B/ c/B/A (3dcB (3A^GF |1 B/A/^G F/E/D/E/ D3 A, :|
[2 B/A/^G F/E/D/E/ D2 z/A/^G/A/ ||
|: d3A d3A | dA dA dA dA | dc BA ^G>F ^G/F/E/D/ |
dc BA ^G/B/A- A2 | dc BA ^G>F ^G/F/E/D/ |
[1 EE F/E/D/^C/ D2 z/A/^G/A/ :|2 EE F/E/D/^C/ D3E ||
|: ^FA A/=G/G/F/ FA A/G/G/F/ | A/^G/A/B/ c/B/A/G/ Ad dd |
^FA A/=G/G/F/ G3^G |1 B/A/^G/F/ ^G/F/E/F/ D3E :|2 B/A/^G/F/ ^G/F/E/F/ D3 A, ||

